images/icons/share-icon.svg

<svg width="38" height="48" viewBox="0 0 38 48" fill="none" xmlns="http://www.w3.org/2000/svg">
<path fill-rule="evenodd" clip-rule="evenodd" d="M2.775 9.35059C2.775 6.04793 5.46689 3.3706 8.7875 3.3706H21.275V13.9506V15.3306H22.6625H34.225V30.5106H37V13.8664V13.2679L36.5607 12.8589L23.8041 0.983086L23.404 0.610596H22.8559H8.7875C3.9343 0.610596 0 4.52363 0 9.35059V37.8706C0 42.6976 3.9343 46.6106 8.7875 46.6106H24.975V43.8506H8.7875C5.46689 43.8506 2.775 41.1733 2.775 37.8706V9.35059ZM24.05 12.5706V4.99244L32.1902 12.5706H24.05ZM17.2368 11.6643L17.2532 11.6624C17.2646 11.6888 17.2774 11.722 17.2909 11.7633C17.4457 12.2366 17.4942 13.1391 17.3246 14.493C17.2866 14.7962 17.2389 15.1129 17.1822 15.4413C16.7071 14.3312 16.4587 13.3939 16.4421 12.7028C16.4304 12.2155 16.5373 11.9988 16.6033 11.914C16.6486 11.8558 16.7811 11.7164 17.2368 11.6643ZM20.0783 14.8343C19.9183 16.1107 19.6135 17.5609 19.201 19.0945C20.6624 21.3052 22.518 23.5048 24.3529 25.1729C25.1755 25.0203 25.9277 24.9127 26.5813 24.8577C28.3913 24.7055 29.8651 25.0405 30.8996 25.7407C31.906 26.422 32.6172 27.5857 32.3022 28.8434C31.9681 30.1772 30.702 30.8088 29.4104 30.8149C28.1301 30.8209 26.5962 30.2714 24.8808 29.1171C24.4499 28.8272 24.0137 28.503 23.5761 28.15C20.8798 28.7533 17.5394 29.7813 14.5372 30.9999C13.7124 32.5705 12.8515 33.992 11.9967 35.1415C11.1132 36.3295 10.1272 37.3786 9.07741 37.9226C8.53201 38.2052 7.88278 38.3964 7.18278 38.3096C6.45763 38.2197 5.85161 37.8531 5.38352 37.3322C4.64949 36.5154 4.44952 35.5103 4.77803 34.5246C5.06462 33.6647 5.71357 32.932 6.40954 32.3302C7.82518 31.106 10.0235 29.9295 12.3969 28.9021L12.5252 28.8467C13.2225 27.4477 13.8975 25.9259 14.5146 24.3666C15.1615 22.7322 15.7335 21.0852 16.1958 19.5271C15.974 19.1611 15.7639 18.7971 15.567 18.4373C14.4987 16.4852 13.7085 14.4601 13.6679 12.7687C13.6471 11.9019 13.8205 10.9811 14.4085 10.2251C15.0117 9.44976 15.8958 9.04529 16.8911 8.92572C17.5592 8.82623 18.2526 8.93097 18.8494 9.35418C19.4254 9.76271 19.7477 10.3529 19.9297 10.9094C20.2814 11.9845 20.259 13.3919 20.0783 14.8343ZM17.0968 25.3775C17.4816 24.4053 17.8445 23.4198 18.1773 22.4415C19.0931 23.6566 20.0971 24.836 21.1346 25.9046C19.5656 26.3171 17.8971 26.8275 16.2555 27.4021C16.5468 26.7339 16.828 26.0566 17.0968 25.3775ZM29.3846 28.0549C29.0459 28.0538 28.5006 27.9472 27.7469 27.5897C28.5599 27.6334 29.0669 27.8388 29.3383 28.0224L29.3577 28.0357C29.367 28.0422 29.3759 28.0486 29.3846 28.0549ZM29.6026 28.2939C29.6026 28.2939 29.5994 28.2885 29.5982 28.2766C29.6028 28.2878 29.6026 28.2939 29.6026 28.2939ZM8.23029 34.413C8.68746 34.0177 9.28504 33.6043 9.99568 33.1837C9.91875 33.292 9.84206 33.3975 9.76565 33.5003C8.94618 34.6022 8.2677 35.23 7.79517 35.4749C7.64748 35.5514 7.5651 35.5668 7.53518 35.5698C7.51971 35.5594 7.49229 35.5372 7.45253 35.493C7.39262 35.4263 7.39318 35.4255 7.40247 35.4118C7.40535 35.4075 7.40907 35.4021 7.41209 35.393C7.46675 35.229 7.675 34.8932 8.23029 34.413Z" fill="url(#paint0_linear)"/>
<path fill-rule="evenodd" clip-rule="evenodd" d="M38 36.7773C38 37.9739 37.015 38.9439 35.8 38.9439C35.2774 38.9439 34.7973 38.7644 34.4198 38.4646L31.3128 40.5046C31.3696 40.6969 31.4 40.9003 31.4 41.1106C31.4 41.3209 31.3696 41.5243 31.3128 41.7166L34.4198 43.7566C34.7973 43.4568 35.2774 43.2773 35.8 43.2773C37.015 43.2773 38 44.2473 38 45.4439C38 46.6405 37.015 47.6106 35.8 47.6106C34.585 47.6106 33.6 46.6405 33.6 45.4439C33.6 45.2336 33.6304 45.0302 33.6872 44.8379L30.5802 42.798C30.2027 43.0978 29.7226 43.2773 29.2 43.2773C27.985 43.2773 27 42.3072 27 41.1106C27 39.914 27.985 38.9439 29.2 38.9439C29.7226 38.9439 30.2027 39.1234 30.5802 39.4232L33.6872 37.3832C33.6304 37.1909 33.6 36.9876 33.6 36.7773C33.6 35.5806 34.585 34.6106 35.8 34.6106C37.015 34.6106 38 35.5806 38 36.7773Z" fill="url(#paint1_linear)"/>
<defs>
<linearGradient id="paint0_linear" x1="18.5" y1="0.610596" x2="18.5" y2="46.6106" gradientUnits="userSpaceOnUse">
<stop stop-color="#AD844C"/>
<stop offset="0.21875" stop-color="#BDA180"/>
<stop offset="0.4375" stop-color="#AD844C"/>
</linearGradient>
<linearGradient id="paint1_linear" x1="35.8" y1="43.2773" x2="35.8" y2="47.6106" gradientUnits="userSpaceOnUse">
<stop stop-color="#AD844C"/>
<stop offset="0.21875" stop-color="#BDA180"/>
<stop offset="0.4375" stop-color="#AD844C"/>
</linearGradient>
</defs>
</svg>

<svg width="38" height="48" fill="none" xmlns="http://www.w3.org/2000/svg"><path fill-rule="evenodd" clip-rule="evenodd" d="M2.775 9.35c0-3.302 2.692-5.98 6.012-5.98h12.488v11.96h12.95v15.18H37V13.269l-.44-.41L23.805.984l-.4-.372H8.787C3.934.61 0 4.524 0 9.35v28.52c0 4.827 3.934 8.74 8.787 8.74h16.188v-2.76H8.787c-3.32 0-6.012-2.678-6.012-5.98V9.35zm21.275 3.22V4.993l8.14 7.579h-8.14zm-6.813-.906l.016-.002c.012.027.024.06.038.101.155.474.203 1.376.034 2.73-.038.303-.086.62-.143.948-.475-1.11-.723-2.047-.74-2.738-.012-.487.095-.704.161-.789.046-.058.178-.198.634-.25zm2.841 3.17c-.16 1.277-.465 2.727-.877 4.26 1.461 2.211 3.317 4.41 5.152 6.079.822-.153 1.575-.26 2.228-.315 1.81-.152 3.284.183 4.319.883 1.006.681 1.717 1.845 1.402 3.102-.334 1.334-1.6 1.966-2.892 1.972-1.28.006-2.814-.544-4.53-1.698-.43-.29-.866-.614-1.304-.967-2.696.603-6.037 1.631-9.039 2.85-.825 1.57-1.686 2.992-2.54 4.142-.884 1.188-1.87 2.237-2.92 2.78-.545.283-1.194.474-1.894.388-.725-.09-1.331-.457-1.8-.978-.734-.817-.933-1.822-.605-2.807.287-.86.936-1.593 1.632-2.195 1.415-1.224 3.614-2.4 5.987-3.428l.128-.055a57.9 57.9 0 001.99-4.48 58.591 58.591 0 001.68-4.84c-.221-.366-.431-.73-.628-1.09-1.068-1.952-1.858-3.977-1.9-5.668-.02-.867.153-1.788.742-2.544.603-.775 1.487-1.18 2.482-1.3.668-.099 1.362.006 1.958.43.576.408.899.998 1.08 1.554.352 1.075.33 2.483.15 3.925zm-2.981 10.544c.385-.973.747-1.958 1.08-2.936a36.867 36.867 0 002.958 3.463 64.965 64.965 0 00-4.88 1.497c.292-.668.573-1.345.842-2.024zm12.288 2.677c-.34-.001-.884-.108-1.638-.465.813.043 1.32.249 1.591.432l.02.014.027.019zm.218.239s-.004-.006-.005-.017c.005.01.005.017.005.017zM8.23 34.413c.457-.395 1.055-.809 1.766-1.23-.077.109-.154.215-.23.317-.82 1.102-1.498 1.73-1.97 1.975a.777.777 0 01-.26.095.48.48 0 01-.083-.077c-.06-.067-.06-.068-.05-.081l.01-.019c.054-.164.262-.5.817-.98z" fill="url(#paint0_linear)"/><path fill-rule="evenodd" clip-rule="evenodd" d="M38 36.777c0 1.197-.985 2.167-2.2 2.167a2.21 2.21 0 01-1.38-.48l-3.107 2.04a2.136 2.136 0 010 1.213l3.107 2.04c.377-.3.857-.48 1.38-.48 1.215 0 2.2.97 2.2 2.167 0 1.197-.985 2.167-2.2 2.167-1.215 0-2.2-.97-2.2-2.167 0-.21.03-.414.087-.606l-3.107-2.04c-.377.3-.857.48-1.38.48-1.215 0-2.2-.97-2.2-2.167 0-1.197.985-2.167 2.2-2.167.523 0 1.003.18 1.38.48l3.107-2.04a2.136 2.136 0 01-.087-.607c0-1.196.985-2.166 2.2-2.166 1.215 0 2.2.97 2.2 2.166z" fill="url(#paint1_linear)"/><defs><linearGradient id="paint0_linear" x1="18.5" y1=".611" x2="18.5" y2="46.611" gradientUnits="userSpaceOnUse"><stop stop-color="#AD844C"/><stop offset=".219" stop-color="#BDA180"/><stop offset=".438" stop-color="#AD844C"/></linearGradient><linearGradient id="paint1_linear" x1="35.8" y1="43.277" x2="35.8" y2="47.611" gradientUnits="userSpaceOnUse"><stop stop-color="#AD844C"/><stop offset=".219" stop-color="#BDA180"/><stop offset=".438" stop-color="#AD844C"/></linearGradient></defs></svg>
